web/packages/design/src/ResourceIcon/assets/kaiser-dark.svg

<svg width="72" height="72" viewBox="0 0 72 72" fill="none" xmlns="http://www.w3.org/2000/svg">
<g clip-path="url(#clip0_16904_17415)">
<path d="M45.2826 22.7402C44.461 22.0235 43.5146 21.4645 42.4909 21.0913L40.9229 53.1113L48.8776 30.9849C49.1154 29.4105 48.904 27.8008 48.2678 26.3418C47.6317 24.8829 46.5967 23.6343 45.2826 22.7402Z" fill="white"/>
<path d="M32.1602 20.8231L36.8257 52.8047L41.3768 20.8231C38.4025 19.7224 35.1343 19.7224 32.1602 20.8231Z" fill="white"/>
<path d="M28.3047 22.7027C26.9941 23.5999 25.9617 24.849 25.3259 26.3071C24.6902 27.7652 24.4767 29.3734 24.7099 30.9474L32.6645 53.0737L31.0965 21.0537C30.073 21.4269 29.1266 21.9859 28.3047 22.7027Z" fill="white"/>
<path d="M12.3125 25.7315C17.5901 35.0498 23.0206 44.9052 28.2982 53.9934C26.4243 46.324 24.4738 33.1708 21.7968 29.5279C20.6157 28.2038 19.1447 27.1719 17.4992 26.5133C15.8537 25.8546 14.0784 25.587 12.3125 25.7315Z" fill="white"/>
<path d="M2.91016 30.4096L24.5941 55.6422L11.1707 25.8848C9.53536 25.9316 7.93432 26.3661 6.49857 27.1525C5.06282 27.9391 3.83315 29.0552 2.91016 30.4096Z" fill="white"/>
<path d="M48.3077 37.2361L44.7129 54.5306C49.3403 46.4393 53.9296 38.5016 58.404 30.4103C56.2145 30.3162 54.0525 30.9283 52.2353 32.1569C50.4182 33.3852 49.0417 35.1655 48.3077 37.2361Z" fill="white"/>
<path d="M59.6975 30.4095L48.2246 56.0255L68.3405 33.9758C67.2187 32.8215 65.8732 31.9096 64.3869 31.2963C62.9005 30.6829 61.3046 30.3812 59.6975 30.4095Z" fill="white"/>
<path d="M0.0776754 41.8375C7.15268 47.3212 14.1512 52.9199 21.2644 58.3652L2.14282 31.292C0.46596 34.5379 -0.250568 38.1968 0.0776754 41.8375Z" fill="white"/>
<path d="M70.8252 37.1595C70.4169 36.28 69.8459 35.4862 69.1425 34.8203L51.8184 58.6722C58.7021 53.5337 65.3564 48.2801 71.9726 43.0266C72.1126 41.0036 71.7167 38.9796 70.8252 37.1595Z" fill="white"/>
<path d="M0.0820312 52.8431L18.5536 61.3946C12.4346 55.2589 6.2392 49.3152 0.0820312 43.2563V52.8431Z" fill="white"/>
<path d="M71.9712 53.4952V44.752L54.5322 61.7399C60.4599 59.0171 65.9287 56.3328 71.9712 53.4952Z" fill="white"/>
<path d="M0.0820312 61.3565C5.6273 62.5836 11.555 64.1559 16.7178 65.1912L0.0820312 54.1855V61.3565Z" fill="white"/>
<path d="M71.97 61.8548V55.144C66.7307 58.4803 61.3383 61.9315 56.4814 65.4211L71.97 61.8548Z" fill="white"/>
<path d="M0.120117 69.716H16.3736L0.120117 62.7368V69.716Z" fill="white"/>
<path d="M71.9787 69.7157V63.3501C66.6247 65.6509 61.9972 67.5683 56.9492 69.7157H71.9787Z" fill="white"/>
<path d="M66.3527 21.9356C66.4237 20.9782 66.2967 20.0164 65.98 19.1103C65.6634 18.2043 65.1637 17.3735 64.5122 16.6699C63.8608 15.9663 63.0715 15.4051 62.1938 15.0213C61.3162 14.6375 60.369 14.4395 59.4116 14.4395C58.454 14.4395 57.5068 14.6375 56.6292 15.0213C55.7515 15.4051 54.9622 15.9663 54.3108 16.6699C53.6593 17.3735 53.1596 18.2043 52.843 19.1103C52.5263 20.0164 52.3993 20.9782 52.4703 21.9356C52.3556 30.8706 66.6969 31.3691 66.3527 21.9356Z" fill="white"/>
<path d="M19.9295 16.8734C20.3883 7.05649 5.244 7.43998 5.81766 16.8734C5.28224 26.6136 20.8472 26.767 19.9295 16.8734Z" fill="white"/>
<path d="M36.8356 18.7527C37.8913 18.8064 38.9467 18.6399 39.9351 18.2638C40.9234 17.8878 41.8233 17.3104 42.578 16.5681C43.3326 15.8258 43.9256 14.9348 44.3195 13.9512C44.7134 12.9675 44.8997 11.9127 44.8666 10.8532C44.9962 9.74485 44.8828 8.62148 44.5346 7.56152C44.1865 6.50158 43.6118 5.53059 42.8507 4.71634C42.0896 3.90208 41.1606 3.26418 40.1281 2.84715C39.0959 2.43011 37.9853 2.244 36.8738 2.3018C35.765 2.25469 34.6593 2.45009 33.6334 2.87444C32.6075 3.29879 31.6859 3.94193 30.9327 4.7592C30.1794 5.57648 29.6126 6.54832 29.2715 7.60728C28.9304 8.66623 28.8233 9.78693 28.9575 10.8916C28.8957 11.9434 29.0576 12.9963 29.4322 13.9807C29.8068 14.9651 30.3857 15.8585 31.1305 16.6017C31.8752 17.3449 32.769 17.921 33.7526 18.2918C34.7361 18.6627 35.787 18.8198 36.8356 18.7527Z" fill="white"/>
</g>
<defs>
<clipPath id="clip0_16904_17415">
<rect width="72" height="72" fill="white" transform="translate(0 0.00146484)"/>
</clipPath>
</defs>
</svg>

<svg xmlns="http://www.w3.org/2000/svg" width="72" height="72" fill="none" viewBox="0 0 72 72"><g fill="#fff" clip-path="url(#a)"><path d="M45.283 22.74a8.9 8.9 0 0 0-2.792-1.649l-1.568 32.02 7.955-22.126a8.46 8.46 0 0 0-.61-4.643 8.43 8.43 0 0 0-2.985-3.602M32.16 20.823l4.666 31.982 4.55-31.982a13.28 13.28 0 0 0-9.216 0m-3.855 1.88a8.47 8.47 0 0 0-2.98 3.604 8.5 8.5 0 0 0-.615 4.64l7.954 22.127-1.568-32.02a8.9 8.9 0 0 0-2.791 1.649m-15.992 3.029C17.59 35.05 23.02 44.905 28.298 53.993c-1.874-7.669-3.824-20.822-6.501-24.465a11.5 11.5 0 0 0-4.298-3.015 11.44 11.44 0 0 0-5.186-.782M2.91 30.41l21.684 25.232-13.423-29.757a10.34 10.34 0 0 0-4.672 1.267A10.4 10.4 0 0 0 2.91 30.41m45.398 6.826-3.595 17.295c4.627-8.092 9.217-16.03 13.691-24.12a10.23 10.23 0 0 0-6.169 1.746 10.27 10.27 0 0 0-3.927 5.08m11.39-6.827L48.225 56.026l20.116-22.05a11.75 11.75 0 0 0-8.643-3.566M.078 41.838C7.153 47.32 14.15 52.92 21.264 58.365L2.143 31.292A19.2 19.2 0 0 0 .078 41.837m70.747-4.677a7.7 7.7 0 0 0-1.683-2.34L51.819 58.672c6.884-5.138 13.538-10.392 20.155-15.645a11.53 11.53 0 0 0-1.148-5.867M.082 52.843l18.472 8.552C12.434 55.259 6.239 49.315.082 43.256zm71.889.652v-8.743L54.532 61.74c5.928-2.723 11.397-5.407 17.44-8.245M.082 61.357c5.545 1.227 11.473 2.799 16.636 3.834L.082 54.185zm71.888.498v-6.711c-5.24 3.336-10.632 6.788-15.489 10.277zM.12 69.716h16.254L.12 62.736zm71.859 0V63.35c-5.354 2.3-9.982 4.218-15.03 6.366z"/><path d="M66.353 21.936a7 7 0 0 0-1.84-5.266 6.96 6.96 0 0 0-5.101-2.23 6.94 6.94 0 0 0-5.101 2.23 6.98 6.98 0 0 0-1.84 5.266c-.115 8.935 14.226 9.433 13.882 0M19.93 16.873c.458-9.817-14.686-9.433-14.112 0-.536 9.74 15.03 9.894 14.112 0m16.906 1.88a7.63 7.63 0 0 0 5.742-2.185 7.67 7.67 0 0 0 2.289-5.715 7.69 7.69 0 0 0-2.016-6.137 7.65 7.65 0 0 0-5.977-2.414 7.63 7.63 0 0 0-5.941 2.457 7.67 7.67 0 0 0-1.976 6.133 7.46 7.46 0 0 0 2.174 5.71 7.42 7.42 0 0 0 5.705 2.15"/></g><defs><clipPath id="a"><path fill="#fff" d="M0 .001h72v72H0z"/></clipPath></defs></svg>
